X:275
T: Joe Skelton's
S: "Traditional Irish Music" (K.Tweed)
Z: B.Black
L: 1/8
M: 4/4
R: hornpipe
K: D
e|fedc dAFA|fedc dAFA|(3GBd g2 edcd|\
(3efe (3dcB A^ga=g|
fedc dAFA|fedc db^ab|aged cABc|eddc d3 :|
f|e2 cd ea a2|fAde f3 f|gfga bagf|\
(3efe (3dcB (3ABA (3GFE|
DFAd fefa|gfga b2 ag|fAdf eAce|cddc d3 :|
